X: 100382
T: KILWINNING ARCHERS' STRATHSPEY
R: strathspey
B: K\"ohler's Violin Repository, v.3, 1885 p.252 #3
F: http://www.archive.org/details/klersviolinrepos03rugg
Z: 2012 John Chambers <jc:trillian.mit.edu>
M: C|
L: 1/8
K: D
uF |\
D<DF<A (.B>.A)(B>d) | (.A>.B)(d>f) {f}(.e>.d)(e>f) |\
(D>A)(F>A) B>AB<d | (.A>.B)(d>e) f<dd ||
ue |\
f<dd>e (f/g/)a/g/ (f<d) | (.B>.A)(B>d) {f}e>de<g |\
f<dd>e (f/g/)a/g/ (f<d) | (.A>.B)(d>e) f<dd>e |
(3fga (3bag (3afd (3dcd | (3Bcd (3efg (3fed (3cBA |\
(D>A)(F>A) B>AB<d | (.A>.B)(d>e) "_Segue Reel."f<dd "^D.C."|]

%%sep 2 1 500

